src/icons/SilverStripe.svg

<svg width="101" height="102" viewBox="0 0 101 102" xmlns="http://www.w3.org/2000/svg"><title>Artboard 1</title><g fill="#0F507F" fill-rule="evenodd"><path d="M41.115 67.919c7.884-5.398 9.899-16.164 4.504-24.048l-14.282 9.766h-.001c-3.937 2.697-9.321 1.693-12.023-2.253-2.699-3.942-1.689-9.324 2.252-12.023l.013-.008 13.021-8.913 8.377-5.738c7.885-5.399 9.901-16.164 4.505-24.048L11.818 25.068c-.01.008-.02.012-.029.018C-.033 33.18-3.057 49.334 5.042 61.157c8.093 11.828 24.246 14.849 36.067 6.756l.006.006M59.888 34.089v.003l-.012.008c-.03.022-.06.048-.09.071l.106-.075c-7.885 5.399-9.901 16.165-4.503 24.048l14.275-9.772-.005-.006c3.943-2.7 9.329-1.696 12.022 2.248 2.705 3.942 1.695 9.325-2.248 12.025L58.024 77.297c-7.887 5.4-9.904 16.166-4.505 24.049l14.278-9.77 21.408-14.662v-.002c11.826-8.095 14.852-24.242 6.756-36.068-8.098-11.829-24.251-14.849-36.073-6.755"/></g></svg>

<?xml version="1.0" encoding="UTF-8" standalone="no"?>
<svg width="101px" height="102px" viewBox="0 0 101 102" version="1.1" xmlns="http://www.w3.org/2000/svg" xmlns:xlink="http://www.w3.org/1999/xlink">
    <!-- Generator: Sketch 3.8.3 (29802) - http://www.bohemiancoding.com/sketch -->
    <title>Artboard 1</title>
    <desc>Created with Sketch.</desc>
    <defs></defs>
    <g id="Page-1" stroke="none" stroke-width="1" fill="none" fill-rule="evenodd">
        <g id="Artboard-1" fill="#0F507F">
            <g id="SilverStripePrint-LogoOnlyLight">
                <path d="M41.115,67.919 C48.999,62.521 51.014,51.755 45.619,43.871 L31.337,53.637 L31.336,53.637 C27.399,56.334 22.015,55.33 19.313,51.384 C16.614,47.442 17.624,42.06 21.565,39.361 C21.568,39.359 21.574,39.355 21.578,39.353 L34.599,30.44 L42.976,24.702 C50.861,19.303 52.877,8.538 47.481,0.654 L11.818,25.068 C11.808,25.076 11.798,25.08 11.789,25.086 C-0.033,33.18 -3.057,49.334 5.042,61.157 C13.135,72.985 29.288,76.006 41.109,67.913 L41.115,67.919" id="Fill-1"></path>
                <path d="M59.888,34.089 L59.888,34.092 L59.876,34.1 C59.846,34.122 59.816,34.148 59.786,34.171 L59.892,34.096 C52.007,39.495 49.991,50.261 55.389,58.144 L69.664,48.372 L69.659,48.366 C73.602,45.666 78.988,46.67 81.681,50.614 C84.386,54.556 83.376,59.939 79.433,62.639 L58.024,77.297 C50.137,82.697 48.12,93.463 53.519,101.346 L67.797,91.576 L89.205,76.914 L89.205,76.912 C101.031,68.817 104.057,52.67 95.961,40.844 C87.863,29.015 71.71,25.995 59.888,34.089" id="Fill-2"></path>
            </g>
        </g>
    </g>
</svg>
